src/images/icons/external-link.svg

<?xml version="1.0" encoding="UTF-8" standalone="no"?>
<svg width="24px" height="24px" viewBox="0 0 24 24" version="1.1" xmlns="http://www.w3.org/2000/svg" xmlns:xlink="http://www.w3.org/1999/xlink" xmlns:sketch="http://www.bohemiancoding.com/sketch/ns">
    <!-- Generator: Sketch 3.3.2 (12043) - http://www.bohemiancoding.com/sketch -->
    <title>Artboard 2 Copy 3</title>
    <desc>Created with Sketch.</desc>
    <defs></defs>
    <g id="Page-1" stroke="none" stroke-width="1" fill="none" fill-rule="evenodd" sketch:type="MSPage">
        <g id="Artboard-2-Copy-3" sketch:type="MSArtboardGroup" fill="#4783E8">
            <path d="M2.5597124,4.21686327 L1.8097124,4.21686327 L1.8097124,4.96686327 L1.8097124,20.6599138 L1.8097124,21.4099138 L2.5597124,21.4099138 L18.3088923,21.4099138 L19.0588924,21.4099138 L19.0588923,20.6599138 L19.0588922,9.00805675 L17.5588922,9.00805677 L17.5588923,20.6599138 L18.3088923,19.9099138 L2.5597124,19.9099138 L3.3097124,20.6599138 L3.3097124,4.96686327 L2.5597124,5.71686327 L13.5089283,5.71686327 L13.5089283,4.21686327 L2.5597124,4.21686327 Z" id="Shape" sketch:type="MSShapeGroup"></path>
            <path d="M21.267838,2.83940288 L20.517838,2.08940288 L20.517838,5.17668098 C20.517838,5.34566507 20.517838,5.34566507 20.5178381,5.66371357 C20.5178381,5.69435 20.5178381,5.69435 20.5178381,5.72485319 C20.5178381,6.06263441 20.5178379,6.40059952 20.5178379,6.50744048 L22.0178379,6.50744029 C22.0178379,6.40059933 22.0178381,6.06263422 22.0178381,5.72485301 C22.0178381,5.69434982 22.0178381,5.69434982 22.0178381,5.66371339 C22.017838,5.3456649 22.017838,5.3456649 22.017838,5.17668098 L22.017838,2.08940288 L22.017838,1.33940288 L21.267838,1.33940288 L16.6265811,1.33940288 L16.6265811,2.15085565 L16.6265811,2.83940288 L21.267838,2.83940288 Z" id="Shape" sketch:type="MSShapeGroup"></path>
            <path d="M20.1103239,2.10212386 L10.2946883,12.084977 L9.76885609,12.6197672 L10.8384364,13.6714315 L11.3642686,13.1366414 L21.1799043,3.15378822 L21.7057365,2.61899806 L20.6361561,1.5673337 L20.1103239,2.10212386 L20.1103239,2.10212386 Z" id="Shape" sketch:type="MSShapeGroup"></path>
        </g>
    </g>
</svg>

<svg width="24" height="24" viewBox="0 0 24 24" xmlns="http://www.w3.org/2000/svg"><title>Artboard 2 Copy 3</title><g fill="#4783E8" fill-rule="evenodd"><path d="M2.56 4.217h-.75V21.41h17.25V9.008h-1.5V20.66l.75-.75H2.56l.75.75V4.967l-.75.75h10.95v-1.5H2.56zM21.268 2.84l-.75-.75V6.506h1.5v-.782-.06V1.338h-5.39v1.5h4.64z"/><path d="M20.11 2.102l-9.815 9.983-.526.535 1.068 1.05.526-.533 9.816-9.983.526-.535-1.07-1.053-.526.535z"/></g></svg>
